64x64/apps/libreoffice4.2-impress.svg

<svg height="64" width="64" xmlns="http://www.w3.org/2000/svg"><path d="m10 56v2c0 1.662 1.338 3 3 3h38c1.662 0 3-1.338 3-3v-2c0 1.662-1.338 3-3 3h-38c-1.662 0-3-1.338-3-3z" opacity=".2"/><path d="m54 57v-50c0-1.662-1.338-3-3-3h-38c-1.662 0-3 1.338-3 3v50c0 1.662 1.338 3 3 3h38c1.662 0 3-1.338 3-3z" fill="#ff5722"/><path d="m14 9v48h36v-31.172l-16.828-16.828zm24.828 0 11.172 11.172v-11.172z" opacity=".1"/><path d="m14 8v48h36v-31.172l-16.828-16.828zm24.828 0 11.172 11.172v-11.172z" fill="#f5f5f5"/><path d="m13 4c-1.662 0-3 1.338-3 3v1c0-1.662 1.338-3 3-3h38c1.662 0 3 1.338 3 3v-1c0-1.662-1.338-3-3-3z" fill="#f4f4f7" opacity=".1"/><path d="m24 32.666a5.333 5.333 0 1 0 5.333 5.333h-5.333zm8 1.334v2h13.333v-2zm0 6v2h13.333v-2zm-12 6v2h20v-2z" opacity=".5"/></svg>

<svg height="64" width="64" xmlns="http://www.w3.org/2000/svg">
    <path d="M10 56v2c0 1.662 1.338 3 3 3h38c1.662 0 3-1.338 3-3v-2c0 1.662-1.338 3-3 3H13c-1.662 0-3-1.338-3-3z" opacity=".2"/>
    <path d="M54 57V7c0-1.662-1.338-3-3-3H13c-1.662 0-3 1.338-3 3v50c0 1.662 1.338 3 3 3h38c1.662 0 3-1.338 3-3z" fill="#ff5722"/>
    <path d="M14 9v48h36V25.828L33.172 9zm24.828 0L50 20.172V9z" opacity=".1"/>
    <path d="M14 8v48h36V24.828L33.172 8zm24.828 0L50 19.172V8z" fill="#f5f5f5"/>
    <path d="M13 4c-1.662 0-3 1.338-3 3v1c0-1.662 1.338-3 3-3h38c1.662 0 3 1.338 3 3V7c0-1.662-1.338-3-3-3z" fill="#f4f4f7" opacity=".1"/>
    <path d="M24 32.666a5.333 5.333 0 1 0 5.333 5.333H24zM32 34v2h13.333v-2zm0 6v2h13.333v-2zm-12 6v2h20v-2z" opacity=".5"/>
</svg>
